!!!!SEGMENT: pl-kk--kk-i-322--007_casali-giovanni-battista--credidi-propter-gloria-patri.krn
!!!cenid: 17xx:2129
!!!COM: Casali, Giovanni Battista
!!!COM-rismid: pe30000607
!!!CDT: 1715-1792/07/06
!!!CNT: Italian
!!!OTL: Credidi propter – Gloria patri
!!!PDT:
!!!AGN: Sacred
!!!SMS-siglum: PL-Kk
!!!SMS-shelfmark: Kk.I.322
!!!SMS-shelfwork: 001-007 M
!!!SMS-variant:
!!!SMS-altvar:
!!!NIFC-rismid: 1001146194
!!!URL-scan: http://repozytorium.nifc.pl/skany/pl-kk-nut--i-322
!!!ONB-nifc: UWAGA: części Credidi: 1. Credidi propter, 2. Calicem salutaris, 3. Vota mea, 4. O Domine, 5. Dirupisti vincula mea, 6. Vota mea, 7. Gloria Patri, 8. Et in saecula saeculorum
**kern	**fb	**kern	**kern	**kern	**kern	**kern	**text
*part6	*	*part5	*part4	*part3	*part2	*part1	*part1
*staff6	*	*staff5	*staff4	*staff3	*staff2	*staff1	*staff1
*I"Organo	*	*I"Baſso di Ripieno	*I"Tenore di Ripieno	*I"Alto di Ripieno	*I"Canto di Ripieno	*I"Canto Solo	*
*I'org	*	*I'B rip.	*I'T rip.	*I'A rip.	*I'S rip.	*I'S	*
*clefF4	*	*clefF4	*clefC4	*clefC3	*clefC1	*clefC1	*
*k[f#c#g#]	*	*k[f#c#g#]	*k[f#c#g#]	*k[f#c#g#]	*k[f#c#g#]	*k[f#c#g#]	*
*A:	*	*A:	*A:	*A:	*A:	*A:	*
*M3/4	*	*M3/4	*M3/4	*M3/4	*M3/4	*M3/4	*
=1	=1	=1	=1	=1	=1	=1	=1
*all\right	*	*	*	*	*	*all\right	*
!LO:TX:a:i:t=Solo	!	!LO:TX:a:i:t=Gloria Patri Tace	!LO:TX:a:i:t=Gloria Patri Tace	!LO:TX:a:i:t=Gloria Patri Tace	!LO:TX:a:i:t=Gloria Patri Tace	!LO:TX:a:t=Largo	!
!LO:TX:a:i:t=Largo	!	!	!	!	!	!	!
4AA/	.	2.ryy	2.ryy	2.ryy	2.ryy	4ee\	Glo-
4AA/	.	.	.	.	.	4a\	-ri-
4BB/	6	.	.	.	.	4g#\	-a
=2	=2	=2	=2	=2	=2	=2	=2
4C#/	6	2.ryy	2.ryy	2.ryy	2.ryy	8.a\L	Pa-
.	.	.	.	.	.	16cc#\Jk	.
4GG#/	6	.	.	.	.	4b\	-tri
4AA/	.	.	.	.	.	4cc#\	et
=3	=3	=3	=3	=3	=3	=3	=3
4BB/	6	2.ryy	2.ryy	2.ryy	2.ryy	8.dd\	Fi-
.	.	.	.	.	.	16ff#\	-li-
4C#/	.	.	.	.	.	4ee\	-o
4C#/	.	.	.	.	.	4r	.
=4	=4	=4	=4	=4	=4	=4	=4
!LO:LB:g=original	!	!	!	!	!	!LO:LB:g=original	!
4D\	.	2.ryy	2.ryy	2.ryy	2.ryy	[<4ff#\	et
!	!	!	!	!	!	!LO:TUP:b	!
4D\	.	.	.	.	.	12ff#\L]	.
.	.	.	.	.	.	12aa\	.
.	.	.	.	.	.	12gg#\J	.
!	!	!	!	!	!	!LO:TUP:b	!
4D\	.	.	.	.	.	12aa\L	Spi-
.	.	.	.	.	.	12gg#\	.
.	.	.	.	.	.	12ff#\J	.
=5	=5	=5	=5	=5	=5	=5	=5
4C#/	6	2.ryy	2.ryy	2.ryy	2.ryy	4ee\	-ri-
4BB/	6	.	.	.	.	4dd\	-tu-
4AA/	.	.	.	.	.	4cc#\	-i
=6	=6	=6	=6	=6	=6	=6	=6
4D\	8 6	2.ryy	2.ryy	2.ryy	2.ryy	8.ff#\L	San-
.	.	.	.	.	.	16dd\Jk	.
!	!	!	!	!	!	!LO:TX:t=P:problem:2\right:global	!
.	.	.	.	.	.	8qqdd/	.
*	*	*	*	*	*	*2\right	*
4E\	6 4	.	.	.	.	2b\	.
4EE/	3#	.	.	.	.	.	.
=7	=7	=7	=7	=7	=7	=7	=7
4AA/	.	2.ryy	2.ryy	2.ryy	2.ryy	4a\	-cto
8A\L	.	.	.	.	.	4r	.
8B\	.	.	.	.	.	.	.
8A\	.	.	.	.	.	4r	.
8G#\J	.	.	.	.	.	.	.
=8	=8	=8	=8	=8	=8	=8	=8
!	!	!	!	!	!	!LO:PB:g=original	!
4F#\	5	2.ryy	2.ryy	2.ryy	2.ryy	4aa\	Glo-
4F#\	.	.	.	.	.	4cc#\	-ri-
4F#\	6#	.	.	.	.	4dd#X\	-a
=9	=9	=9	=9	=9	=9	=9	=9
4G#\	6	2.ryy	2.ryy	2.ryy	2.ryy	4ee\	Pa-
4G#\	.	.	.	.	.	4b\	-tri
4G#\	.	.	.	.	.	4ee\	et
=10	=10	=10	=10	=10	=10	=10	=10
.	.	.	.	.	.	8qqb/	.
4F#\	7	2.ryy	2.ryy	2.ryy	2.ryy	2a\	fi-
4BB/	7 3#	.	.	.	.	.	.
4BB/	.	.	.	.	.	4a\	-li-
=11	=11	=11	=11	=11	=11	=11	=11
4E\	.	2.ryy	2.ryy	2.ryy	2.ryy	4g#\	-o
4E\	.	.	.	.	.	4b\	et
4E\	.	.	.	.	.	4ee\	Spi-
=12	=12	=12	=12	=12	=12	=12	=12
!	!	!	!	!	!	!LO:LB:g=original	!
.	.	.	.	.	.	8qqee/	.
4F#\	6n	2.ryy	2.ryy	2.ryy	2.ryy	4dd\	-ri-
4F#\	.	.	.	.	.	4.dd\	-tu-
4G#\	5	.	.	.	.	.	.
.	.	.	.	.	.	8dd\	-i
=13	=13	=13	=13	=13	=13	=13	=13
!LO:LB:g=original	!	!	!	!	!	!	!
4A\	.	2.ryy	2.ryy	2.ryy	2.ryy	[4cc#\	San-
4AA/	.	.	.	.	.	16cc#\LL]	.
.	.	.	.	.	.	16b\	.
.	.	.	.	.	.	16cc#\	.
.	.	.	.	.	.	16ee\JJ	.
4BB/	3#	.	.	.	.	16dd#X\LL	.
.	.	.	.	.	.	16cc#\	.
.	.	.	.	.	.	16dd#\	.
.	.	.	.	.	.	16ff#\JJ	.
=14	=14	=14	=14	=14	=14	=14	=14
4C#/	5	2.ryy	2.ryy	2.ryy	2.ryy	[4ee\	.
4C#/	.	.	.	.	.	16ee\LL]	.
.	.	.	.	.	.	16dd#X\	.
.	.	.	.	.	.	16ee\	.
.	.	.	.	.	.	16gg#\JJ	.
4D#X\	6	.	.	.	.	16ff#\LL	.
.	.	.	.	.	.	16ee\	.
.	.	.	.	.	.	16ff#\	.
.	.	.	.	.	.	16aa\JJ	.
=15	=15	=15	=15	=15	=15	=15	=15
!	!	!	!	!	!	!LO:LB:g=original	!
4E\	.	2.ryy	2.ryy	2.ryy	2.ryy	16gg#\KL	.
.	.	.	.	.	.	8.bb\	.
4F#\	6#	.	.	.	.	16aa\K	.
.	.	.	.	.	.	8.gg#\	.
4G#\	6	.	.	.	.	16ff#\K	.
.	.	.	.	.	.	8.ee\J	.
=16	=16	=16	=16	=16	=16	=16	=16
4A\	6 5	2.ryy	2.ryy	2.ryy	2.ryy	8.cc#\L	.
.	.	.	.	.	.	16ff#\Jk	.
.	.	.	.	.	.	8qqee/	.
4B\	6 4	.	.	.	.	2dd#X\	.
4BB/	3#	.	.	.	.	.	.
=17	=17	=17	=17	=17	=17	=17	=17
!LO:LB:g=original	!	!	!	!	!	!	!
4E\	.	2.ryy	2.ryy	2.ryy	2.ryy	4ee\	-cto
8E\L	.	.	.	.	.	4r	.
8F#\	.	.	.	.	.	.	.
8E\	.	.	.	.	.	4r	.
8D\J	.	.	.	.	.	.	.
=18	=18	=18	=18	=18	=18	=18	=18
4C#/	6	2.ryy	2.ryy	2.ryy	2.ryy	4r	.
4C#/	.	.	.	.	.	4ee\	Sic-
4C#/	.	.	.	.	.	4a\	-ut
=19	=19	=19	=19	=19	=19	=19	=19
!	!	!	!	!	!	!LO:LB:g=original	!
4D/	4 2	2.ryy	2.ryy	2.ryy	2.ryy	8.g#\L	e-
.	.	.	.	.	.	16b\Jk	.
4C#/	6	.	.	.	.	2a\	-rat
4C#/	.	.	.	.	.	.	.
=20	=20	=20	=20	=20	=20	=20	=20
4GG#/	.	2.ryy	2.ryy	2.ryy	2.ryy	8.b\L	in
.	.	.	.	.	.	16dd\Jk	.
4AA/	.	.	.	.	.	2cc#\	prin-
4AA/	.	.	.	.	.	.	.
=21	=21	=21	=21	=21	=21	=21	=21
4BB/	6	2.ryy	2.ryy	2.ryy	2.ryy	8.dd\	-ci-
.	.	.	.	.	.	16ff#\	-pi-
4C#/	.	.	.	.	.	2ee\	-o
4C#/	.	.	.	.	.	.	.
=22	=22	=22	=22	=22	=22	=22	=22
!LO:LB:g=original	!	!	!	!	!	!	!
4D\	5	2.ryy	2.ryy	2.ryy	2.ryy	8ff#\L	et
.	.	.	.	.	.	8ee\J	.
4D\	.	.	.	.	.	8dd\L	nunc
.	.	.	.	.	.	8cc#\J	.
4D#X\	6	.	.	.	.	8b\L	et
.	5	.	.	.	.	8a\J	.
=23	=23	=23	=23	=23	=23	=23	=23
4E\	.	2.ryy	2.ryy	2.ryy	2.ryy	[4ee\	[sem]-
4E\	.	.	.	.	.	16ee\LL]	.
.	.	.	.	.	.	16dd#X\	.
.	.	.	.	.	.	16ee\	.
.	.	.	.	.	.	16ff#\JJ	.
4E\	.	.	.	.	.	16ee\LL	.
.	.	.	.	.	.	16dd#\	.
.	.	.	.	.	.	16ee\	.
.	.	.	.	.	.	16ff#\JJ	.
=24	=24	=24	=24	=24	=24	=24	=24
4E\	7n	2.ryy	2.ryy	2.ryy	2.ryy	4ddn\	.
4E\	.	.	.	.	.	16r	.
.	.	.	.	.	.	16gg#\LL	.
.	.	.	.	.	.	16bb\	.
.	.	.	.	.	.	16aa\JJ	.
4E\	.	.	.	.	.	16gg#\LL	.
.	.	.	.	.	.	16ff#\	.
.	.	.	.	.	.	16ee\	.
.	.	.	.	.	.	16dd\JJ	.
=25	=25	=25	=25	=25	=25	=25	=25
4E\	6 4	2.ryy	2.ryy	2.ryy	2.ryy	[4cc#\	.
4E\	.	.	.	.	.	16cc#\LL]	.
.	.	.	.	.	.	16b\	.
.	.	.	.	.	.	16cc#\	.
.	.	.	.	.	.	16dd\JJ	.
4E\	.	.	.	.	.	16cc#\LL	.
.	.	.	.	.	.	16b\	.
.	.	.	.	.	.	16cc#\	.
.	.	.	.	.	.	16dd\JJ	.
=26	=26	=26	=26	=26	=26	=26	=26
!	!	!	!	!	!	!LO:LB:g=original	!
4E\	.	2.ryy	2.ryy	2.ryy	2.ryy	4cc#\	.
4E\	.	.	.	.	.	16r	.
.	.	.	.	.	.	16ee\LL	.
.	.	.	.	.	.	16aa\	.
.	.	.	.	.	.	16gg#\JJ	.
4E\	.	.	.	.	.	16ff#\LL	.
.	.	.	.	.	.	16ee\	.
.	.	.	.	.	.	16dd\	.
.	.	.	.	.	.	16cc#\JJ	.
=27	=27	=27	=27	=27	=27	=27	=27
4E\	7	2.ryy	2.ryy	2.ryy	2.ryy	[4dd\	.
4E\	.	.	.	.	.	16dd\LL]	.
.	.	.	.	.	.	16cc#\	.
.	.	.	.	.	.	16dd\	.
.	.	.	.	.	.	16ee\JJ	.
4E\	.	.	.	.	.	16dd\LL	.
.	.	.	.	.	.	16cc#\	.
.	.	.	.	.	.	16dd\	.
.	.	.	.	.	.	16ee\JJ	.
=28	=28	=28	=28	=28	=28	=28	=28
!LO:LB:g=original	!	!	!	!	!	!	!
4E\	7	2.ryy	2.ryy	2.ryy	2.ryy	8dd\	.
.	.	.	.	.	.	4b\	.
4E\	.	.	.	.	.	.	.
.	.	.	.	.	.	4g#\	.
4E\	.	.	.	.	.	.	.
.	.	.	.	.	.	8e/	.
=29	=29	=29	=29	=29	=29	=29	=29
!	!	!	!	!	!	!LO:LB:g=original	!
4E\	7	2.ryy	2.ryy	2.ryy	2.ryy	4d/	.
4E\	.	.	.	.	.	2dd\	.
4E\	.	.	.	.	.	.	.
=30	=30	=30	=30	=30	=30	=30	=30
4AA/	.	2.ryy	2.ryy	2.ryy	2.ryy	16cc#\LL	.
.	.	.	.	.	.	16a\J	.
.	.	.	.	.	.	8aM\J	.
4BB/	6	.	.	.	.	16dd\LL	.
.	.	.	.	.	.	16b\J	.
.	.	.	.	.	.	8b\J	.
4C#/	.	.	.	.	.	16ee\LL	.
.	.	.	.	.	.	16cc#\J	.
.	.	.	.	.	.	8cc#m\J	.
=31	=31	=31	=31	=31	=31	=31	=31
4D\	.	2.ryy	2.ryy	2.ryy	2.ryy	4ff#\	.
4BB/	6	.	.	.	.	4gg#\	.
4C#/	6	.	.	.	.	4aa\	.
=32	=32	=32	=32	=32	=32	=32	=32
4D\	6 5	2.ryy	2.ryy	2.ryy	2.ryy	8.ff#\L	.
.	.	.	.	.	.	16dd\Jk	.
.	.	.	.	.	.	8qqcc#/	.
4E\	6 4	.	.	.	.	2b\	.
4EE/	3	.	.	.	.	.	.
=33	=33	=33	=33	=33	=33	=33	=33
!LO:LB:g=original	!	!	!	!	!	!LO:LB:g=original	!
4AA/	.	2.ryy	2.ryy	2.ryy	2.ryy	4a\	-per
4AA/	.	.	.	.	.	4r	.
4D\	.	.	.	.	.	8.dd\L	et
.	.	.	.	.	.	16ff#\Jk	.
=34	=34	=34	=34	=34	=34	=34	=34
4C#/	6	2.ryy	2.ryy	2.ryy	2.ryy	2ee\	nunc
4C#/	.	.	.	.	.	.	.
4D\	.	.	.	.	.	8.g#\L	et
.	.	.	.	.	.	16b\Jk	.
=35	=35	=35	=35	=35	=35	=35	=35
4C#/	6	2.ryy	2.ryy	2.ryy	2.ryy	4a\	ſem-
4C#/	.	.	.	.	.	4a\	-per
4C#/	.	.	.	.	.	4r	.
=36	=36	=36	=36	=36	=36	=36	=36
4D/	.	2.ryy	2.ryy	2.ryy	2.ryy	4r	.
4D/	.	.	.	.	.	4r	.
4D#X/	7 5	.	.	.	.	4a\	et
=37	=37	=37	=37	=37	=37	=37	=37
!LO:TX:t=P:problem:2\right:global	!	!	!	!	!	!LO:LB:g=original	!
2.E;\	.	2.ryy	2.ryy	2.ryy	2.ryy	4a;\	sem-
.	.	.	.	.	.	2bM\	-per
=38	=38	=38	=38	=38	=38	=38	=38
!LO:LB:g=original	!	!	!	!	!	!	!
4AA/	.	2.ryy	2.ryy	2.ryy	2.ryy	4a\	.
4r	.	.	.	.	.	4r	.
4r	.	.	.	.	.	4r	.
==	==	==	==	==	==	==	==
*-	*-	*-	*-	*-	*-	*-	*-
!!!system-decoration: s1[(s2,s3,s4,s5)]s6
!!!EED: Andrzej Borzym
!!!EST: 2021-03-25
!!!RDF**kern: > = above
!!!RDF**kern: < = below
!!!ENC: Mateusz Solarz
!!!END: 2021-03-16
